!!!OTL: D'Meedche vu Götzen (79), S.217
!!!id: T0230
**kern
*clefG2
*k[f#]
*G:
{8d
=1
8g
16g
16g
8g
8g
8f#
8g
=2
4.a
4f#
8d
=3
4g}
4.r
=4
{8d
=5
8g
16g
16g
8g
8g
8f#
8g
=6
4.a
4f#
8d
=7
4g}
4.r
=8
{8d
=9
8b
16b
16b
8b
8b
8a
8b
=10
4.cc
4b}
=11
{8b
=12
8a
8a
8a
8a
8a-
8a
=13
4.dd
4b
8b
=14
4g
4.r
8b
=15
4g}
4.r
==
*-
!!!minrhy: 16
!!!meters: 6/8 ]  ZZ[4
!!!cut: D'Meedche vu Götzen (79), S.217
!!!reg: Luxemburg
!!!trd: Singendes Volk, Esch-Alzette 1937 posth.
!!!rhy1: X_  X_XXX_X_X_X_  X__.X__X_  X__0__.
!!!rhy2: X_  X_XXX_X_X_X_  X__.X__X_  X__0__.
!!!key: T0230  16  G 6/8 ]  ZZ[4
!!!mod: HEPTATONIK DUR ?]  AMBITUS[8
!!!kad: 1131
!!!akz: 112-71_112-71_3343_225311_
!!!fot: 'a__a__as"b__
!!!for: 'a__a__aw_b__
!!!fok: '~a_~a_/__Sd_
!! PHRAS[AUFTAKTIG]
!!!fkt: Liebeslieder
!!!bem: Junglinster, hhh Vater des Autors, um 1890
!! THILL, Mathias:
!! PR[34] 2K[0] 2G[0] 3K[10] 3G[3] 4A[3] 4Ü[0] 5A[3] 6K[0] 6G[0]
!! 7K[0] 7G[0] 8A[0] MEHR[0] SI[21] ABS[29] SR[0] SP[21]
!! ST[7] 2k[10] 2g[21] 3k[10] 3g[3] 4d[0] 4ü[0] 5d[0] 6k[0] 6g[0]
!! 7k[0] 7g[0] 8d[0] mehr[0] si[45] dm[-24] sr[31] sp[14]
!! 1F[81] 2F[13] 3F[6] 4F[0] LF[0] 2P[0] 3P[0] 4P[0] TRI[0] DF[3] AB[32]
!! TF[0] U3K[0] U3[0] U4[0] U4Ü[0] U5[0] U6K[0] U6[0] U7K[0] U7[0]
!! N1[7] N2K[0] N2[3] N3K[0] N3[17] N4[10] N4Ü[0] N5[33] N6K[0] N6[23]
!!!n7k: 0] N7[0] O1[7] O2K[0] O2[0] O3K[0] O3[0] HÖ[0
